static/img/in-field/segmented-controls-primary-focus-dark.svg

<svg fill="none" height="55" viewBox="0 0 429 55" width="429" xmlns="http://www.w3.org/2000/svg" xmlns:xlink="http://www.w3.org/1999/xlink"><clipPath id="a"><rect height="51" rx="8" width="423" x="4" y="2"/></clipPath><g clip-path="url(#a)"><rect fill="#019aeb" height="53" rx="6.5" width="138" x="3.5" y="1"/><rect fill="#019aeb" height="52" rx="6" width="137" x="4" y="1.5"/><path d="m52.6104 36.5h-3.2764v-15.7051h9.0019v2.7285h-5.7255v4.0498h5.3281v2.7178h-5.3281zm12.0664-12.0098v12.0098h-3.2764v-12.0098zm-1.6329-4.705c.487 0 .906.1145 1.2569.3437.3509.222.5263.641.5263 1.2568 0 .6088-.1754 1.0313-.5263 1.2676-.3509.2292-.7699.3438-1.2569.3438-.4941 0-.9166-.1146-1.2675-.3438-.3438-.2363-.5157-.6588-.5157-1.2676 0-.6158.1719-1.0348.5157-1.2568.3509-.2292.7734-.3437 1.2675-.3437zm12.0342 4.4794c.1647 0 .3545.0108.5694.0323.222.0143.401.0358.5371.0644l-.2471 3.0723c-.1074-.0358-.2614-.0609-.4619-.0752-.1934-.0215-.3617-.0322-.5049-.0322-.4225 0-.8343.0537-1.2353.1611-.3939.1074-.7484.2829-1.0635.5264-.3151.2363-.5658.5514-.752.9453-.179.3867-.2685.8629-.2685 1.4287v6.1123h-3.2764v-12.0098h2.4814l.4834 2.0196h.1612c.2363-.4082.5299-.7806.8808-1.1172.3581-.3438.7627-.6159 1.2139-.8164.4583-.2077.9525-.3116 1.4824-.3116zm11.916 8.669c0 .8164-.1933 1.5075-.58 2.0732-.3796.5586-.9489.9847-1.708 1.2784-.7592.2864-1.7045.4296-2.836.4296-.8379 0-1.5576-.0537-2.1592-.1611-.5944-.1074-1.1959-.2864-1.8047-.5371v-2.707c.6517.2936 1.35.5371 2.0948.7304.7519.1862 1.4108.2793 1.9765.2793.6374 0 1.0922-.0931 1.3643-.2793.2793-.1933.4189-.444.4189-.7519 0-.2005-.0572-.3796-.1718-.5371-.1075-.1647-.3438-.3474-.709-.5479-.3653-.2077-.9382-.4762-1.7188-.8056-.7519-.3151-1.3714-.6338-1.8584-.9561-.4798-.3223-.8379-.7018-1.0742-1.1387-.2292-.444-.3437-1.0062-.3437-1.6865 0-1.11.4297-1.9443 1.289-2.5029.8666-.5658 2.0231-.8487 3.4698-.8487.7447 0 1.4537.0752 2.1269.2256.6803.1504 1.3786.3903 2.0947.7198l-.9882 2.3632c-.5944-.2578-1.1566-.469-1.6866-.6337-.5228-.1648-1.0563-.2471-1.6006-.2471-.4798 0-.8414.0644-1.0849.1933s-.3653.3259-.3653.5909c0 .1933.0609.3652.1827.5156.1289.1504.3724.3187.7304.5049.3653.179.8988.4118 1.6006.6982.6804.2793 1.2712.5729 1.7725.8809.5013.3008.888.6767 1.1601 1.1279.2722.444.4082 1.0205.4082 1.7295zm7.8663 1.1709c.358 0 .7054-.0358 1.0419-.1074.3438-.0716.684-.1612 1.0206-.2686v2.4385c-.351.1575-.7878.2865-1.3106.3867-.5156.1074-1.0814.1611-1.6973.1611-.7161 0-1.3606-.1145-1.9336-.3437-.5657-.2363-1.0133-.641-1.3427-1.2139-.3223-.5801-.4834-1.3857-.4834-2.417v-5.79h-1.5684v-1.3857l1.8047-1.0957.9453-2.5352h2.0947v2.5566h3.3623v2.46h-3.3623v5.79c0 .4584.1289.8021.3868 1.0313.2649.222.6123.333 1.042.333z" fill="#fff"/><rect height="53" rx="6.5" stroke="#019aeb" width="138" x="3.5" y="1"/><path d="m184.902 32.1387c0 .931-.225 1.7402-.676 2.4277-.452.6875-1.11 1.2175-1.977 1.5898-.859.3724-1.905.5586-3.137.5586-.544 0-1.077-.0358-1.6-.1074-.516-.0716-1.014-.1754-1.493-.3115-.473-.1432-.924-.3187-1.354-.5264v-3.0937c.745.3294 1.518.6266 2.32.8916s1.597.3974 2.385.3974c.544 0 .981-.0716 1.311-.2148.336-.1432.58-.3402.73-.5908.151-.2507.226-.5371.226-.8594 0-.3939-.133-.7305-.398-1.0098s-.63-.5407-1.095-.7841c-.459-.2435-.978-.5049-1.558-.7842-.365-.1719-.763-.3796-1.192-.6231-.43-.2506-.838-.555-1.225-.9131-.387-.358-.705-.7913-.956-1.2998-.244-.5156-.365-1.1315-.365-1.8476 0-.9382.214-1.7402.644-2.4063.43-.666 1.042-1.1744 1.837-1.5254.802-.358 1.747-.5371 2.836-.5371.816 0 1.593.0967 2.331.2901.745.1862 1.522.4583 2.331.8164l-1.074 2.5888c-.723-.2936-1.371-.5192-1.944-.6767-.573-.1647-1.157-.2471-1.751-.2471-.416 0-.77.0681-1.064.2041-.293.1289-.515.3151-.666.5586-.15.2363-.225.5121-.225.8272 0 .3724.107.6875.322.9453.222.2506.551.4941.988.7304.444.2364.996.5121 1.654.8272.802.3796 1.486.777 2.052 1.1924.573.4082 1.013.8916 1.321 1.4502.308.5514.462 1.2389.462 2.0625zm7.791-7.8741c1.11 0 2.066.2149 2.869.6446.802.4225 1.421 1.0384 1.858 1.8476.437.8093.655 1.7976.655 2.9649v1.5898h-7.745c.036.9239.312 1.6507.827 2.1807.523.5228 1.246.7842 2.17.7842.766 0 1.468-.0788 2.106-.2364.637-.1575 1.292-.3938 1.965-.7089v2.5351c-.594.2936-1.217.5085-1.869.6445-.644.1361-1.428.2041-2.352.2041-1.203 0-2.27-.222-3.201-.666-.924-.444-1.651-1.1207-2.181-2.0302-.523-.9096-.784-2.0554-.784-3.4375 0-1.4037.236-2.571.709-3.502.48-.9381 1.146-1.64 1.998-2.1055.852-.4726 1.844-.709 2.975-.709zm.022 2.3311c-.638 0-1.167.2041-1.59.6123-.415.4082-.655 1.0492-.72 1.9229h4.598c-.007-.487-.097-.9203-.269-1.2998-.164-.3796-.415-.6804-.752-.9024-.329-.222-.752-.333-1.267-.333zm13.151 10.1191c-1.189 0-2.202-.2148-3.04-.6445-.838-.4368-1.475-1.11-1.912-2.0195s-.655-2.0733-.655-3.4912c0-1.4681.247-2.6641.741-3.5879.501-.931 1.192-1.6149 2.073-2.0518.888-.4368 1.916-.6553 3.083-.6553.831 0 1.547.0824 2.149.2471.608.1576 1.138.3473 1.59.5694l-.967 2.5351c-.516-.2077-.996-.376-1.44-.5049-.444-.136-.888-.2041-1.332-.2041-.573 0-1.049.1361-1.428.4082-.38.265-.663.666-.849 1.2032-.186.5371-.279 1.2102-.279 2.0195 0 .7949.1 1.4538.3 1.9765.201.5228.491.9131.871 1.1709.379.2507.841.376 1.385.376.681 0 1.286-.0895 1.816-.2685.53-.1862 1.045-.444 1.547-.7735v2.8037c-.502.3151-1.028.5407-1.58.6768-.544.1432-1.235.2148-2.073.2148zm17.61-6.2412c0 1.0026-.136 1.8907-.409 2.6641-.265.7734-.655 1.4287-1.171 1.9658-.508.53-1.124.931-1.847 1.2031-.716.2722-1.526.4082-2.428.4082-.845 0-1.622-.136-2.331-.4082-.702-.2721-1.314-.6731-1.837-1.2031-.515-.5371-.917-1.1924-1.203-1.9658-.279-.7734-.419-1.6615-.419-2.6641 0-1.332.236-2.4599.709-3.3838.473-.9238 1.146-1.6256 2.02-2.1054.873-.4798 1.915-.7198 3.126-.7198 1.124 0 2.119.24 2.986.7198.874.4798 1.557 1.1816 2.052 2.1054.501.9239.752 2.0518.752 3.3838zm-8.304 0c0 .7878.086 1.4502.258 1.9873s.44.9418.805 1.2139c.366.2721.842.4082 1.429.4082.58 0 1.049-.1361 1.407-.4082.366-.2721.63-.6768.795-1.2139.172-.5371.258-1.1995.258-1.9873 0-.7949-.086-1.4537-.258-1.9765-.165-.53-.429-.9274-.795-1.1924-.365-.265-.841-.3975-1.428-.3975-.867 0-1.497.2972-1.891.8916-.387.5944-.58 1.486-.58 2.6748zm18.082-6.209c1.282 0 2.313.351 3.094 1.0528.78.6946 1.171 1.8118 1.171 3.3515v7.8311h-3.277v-7.0146c0-.8594-.157-1.5075-.472-1.9444-.308-.4368-.795-.6553-1.461-.6553-1.003 0-1.687.3402-2.052 1.0205-.365.6804-.548 1.6615-.548 2.9434v5.6504h-3.276v-12.0098h2.503l.44 1.5362h.183c.257-.4154.576-.752.956-1.0098.386-.2578.812-.4476 1.278-.5693.473-.1218.96-.1827 1.461-.1827zm11.69 12.4502c-1.339 0-2.431-.5227-3.276-1.5683-.838-1.0527-1.257-2.596-1.257-4.6299 0-2.0553.426-3.6094 1.278-4.6621.853-1.0599 1.966-1.5899 3.341-1.5899.573 0 1.078.0788 1.515.2364.437.1575.813.3688 1.128.6338.322.2649.594.5621.816.8916h.108c-.043-.2292-.097-.5658-.161-1.0098-.058-.4512-.086-.9131-.086-1.3857v-3.8457h3.287v16.7148h-2.514l-.634-1.5576h-.139c-.208.3294-.469.6302-.785.9023-.308.265-.676.4763-1.106.6338-.43.1576-.935.2363-1.515.2363zm1.15-2.6103c.895 0 1.525-.265 1.89-.7949.373-.5371.57-1.3428.591-2.417v-.3545c0-1.1673-.179-2.0589-.537-2.6748-.358-.6231-1.024-.9346-1.998-.9346-.723 0-1.289.3115-1.697.9346-.408.623-.613 1.5218-.613 2.6963 0 1.1744.205 2.0589.613 2.6533.415.5944.999.8916 1.751.8916z" fill="#fff"/><path d="m286.5 15.5v24" stroke="#019aeb"/><path d="m337.117 36.5h-3.33v-12.9336h-4.265v-2.7715h11.86v2.7715h-4.265zm9.95-16.7148v3.4052c0 .5944-.021 1.1602-.064 1.6973-.036.5371-.065.9167-.086 1.1387h.172c.258-.4154.562-.752.913-1.0098.358-.2578.752-.4476 1.182-.5693.429-.1218.891-.1827 1.385-.1827.867 0 1.622.154 2.267.462.644.3007 1.146.777 1.504 1.4287.358.6445.537 1.4824.537 2.5136v7.8311h-3.276v-7.0146c0-.8594-.158-1.5075-.473-1.9444-.315-.4368-.802-.6553-1.461-.6553s-1.178.154-1.558.462c-.379.3007-.648.7483-.805 1.3427-.158.5873-.237 1.307-.237 2.1592v5.6504h-3.276v-16.7148zm14.709 4.705v12.0098h-3.276v-12.0098zm-1.632-4.705c.487 0 .905.1145 1.256.3437.351.222.527.641.527 1.2568 0 .6088-.176 1.0313-.527 1.2676-.351.2292-.769.3438-1.256.3438-.495 0-.917-.1146-1.268-.3438-.344-.2363-.516-.6588-.516-1.2676 0-.6158.172-1.0348.516-1.2568.351-.2292.773-.3437 1.268-.3437zm12.034 4.4794c.164 0 .354.0108.569.0323.222.0143.401.0358.537.0644l-.247 3.0723c-.107-.0358-.261-.0609-.462-.0752-.193-.0215-.361-.0322-.505-.0322-.422 0-.834.0537-1.235.1611-.394.1074-.748.2829-1.064.5264-.315.2363-.565.5514-.751.9453-.18.3867-.269.8629-.269 1.4287v6.1123h-3.276v-12.0098h2.481l.483 2.0196h.162c.236-.4082.53-.7806.88-1.1172.359-.3438.763-.6159 1.214-.8164.459-.2077.953-.3116 1.483-.3116zm7.34 12.4502c-1.34 0-2.432-.5227-3.277-1.5683-.838-1.0527-1.257-2.596-1.257-4.6299 0-2.0553.426-3.6094 1.279-4.6621.852-1.0599 1.966-1.5899 3.341-1.5899.572 0 1.077.0788 1.514.2364.437.1575.813.3688 1.128.6338.322.2649.594.5621.816.8916h.108c-.043-.2292-.097-.5658-.161-1.0098-.058-.4512-.086-.9131-.086-1.3857v-3.8457h3.287v16.7148h-2.514l-.634-1.5576h-.139c-.208.3294-.469.6302-.784.9023-.308.265-.677.4763-1.107.6338-.429.1576-.934.2363-1.514.2363zm1.149-2.6103c.895 0 1.525-.265 1.891-.7949.372-.5371.569-1.3428.59-2.417v-.3545c0-1.1673-.179-2.0589-.537-2.6748-.358-.6231-1.024-.9346-1.998-.9346-.723 0-1.289.3115-1.697.9346-.408.623-.612 1.5218-.612 2.6963 0 1.1744.204 2.0589.612 2.6533.415.5944.999.8916 1.751.8916z" fill="#fff"/></g><rect height="53" rx="9" stroke="#019aeb" stroke-width="2" width="425" x="3" y="1"/><path d="m2 7.5c0-3.31371 2.68629-6 6-6h127c3.314 0 6 2.68629 6 6v40c0 3.3137-2.686 6-6 6h-127c-3.31371 0-6-2.6863-6-6z" stroke="#019aeb" stroke-width="3"/><path d="m4 8.5c0-2.76142 2.23858-5 5-5h125c2.761 0 5 2.23858 5 5v38c0 2.7614-2.239 5-5 5h-125c-2.76142 0-5-2.2386-5-5z" stroke="#252a2e" stroke-width="2"/></svg>

<svg width="429" height="55" viewBox="0 0 429 55" fill="none" xmlns="http://www.w3.org/2000/svg"><g clip-path="url(#clip0_7388_84266)"><rect x="3.5" y="1" width="138" height="53" rx="6.5" fill="#019AEB"/><rect x="4" y="1.5" width="137" height="52" rx="6" fill="#019AEB"/><path d="M52.6104 36.5H49.334V20.7949H58.3359V23.5234H52.6104V27.5732H57.9385V30.291H52.6104V36.5ZM64.6768 24.4902V36.5H61.4004V24.4902H64.6768ZM63.0439 19.7852C63.5309 19.7852 63.9499 19.8997 64.3008 20.1289C64.6517 20.3509 64.8271 20.7699 64.8271 21.3857C64.8271 21.9945 64.6517 22.417 64.3008 22.6533C63.9499 22.8825 63.5309 22.9971 63.0439 22.9971C62.5498 22.9971 62.1273 22.8825 61.7764 22.6533C61.4326 22.417 61.2607 21.9945 61.2607 21.3857C61.2607 20.7699 61.4326 20.3509 61.7764 20.1289C62.1273 19.8997 62.5498 19.7852 63.0439 19.7852ZM75.0781 24.2646C75.2428 24.2646 75.4326 24.2754 75.6475 24.2969C75.8695 24.3112 76.0485 24.3327 76.1846 24.3613L75.9375 27.4336C75.8301 27.3978 75.6761 27.3727 75.4756 27.3584C75.2822 27.3369 75.1139 27.3262 74.9707 27.3262C74.5482 27.3262 74.1364 27.3799 73.7354 27.4873C73.3415 27.5947 72.987 27.7702 72.6719 28.0137C72.3568 28.25 72.1061 28.5651 71.9199 28.959C71.7409 29.3457 71.6514 29.8219 71.6514 30.3877V36.5H68.375V24.4902H70.8564L71.3398 26.5098H71.501C71.7373 26.1016 72.0309 25.7292 72.3818 25.3926C72.7399 25.0488 73.1445 24.7767 73.5957 24.5762C74.054 24.3685 74.5482 24.2646 75.0781 24.2646ZM86.9941 32.9336C86.9941 33.75 86.8008 34.4411 86.4141 35.0068C86.0345 35.5654 85.4652 35.9915 84.7061 36.2852C83.9469 36.5716 83.0016 36.7148 81.8701 36.7148C81.0322 36.7148 80.3125 36.6611 79.7109 36.5537C79.1165 36.4463 78.515 36.2673 77.9062 36.0166V33.3096C78.5579 33.6032 79.2562 33.8467 80.001 34.04C80.7529 34.2262 81.4118 34.3193 81.9775 34.3193C82.6149 34.3193 83.0697 34.2262 83.3418 34.04C83.6211 33.8467 83.7607 33.596 83.7607 33.2881C83.7607 33.0876 83.7035 32.9085 83.5889 32.751C83.4814 32.5863 83.2451 32.4036 82.8799 32.2031C82.5146 31.9954 81.9417 31.7269 81.1611 31.3975C80.4092 31.0824 79.7897 30.7637 79.3027 30.4414C78.8229 30.1191 78.4648 29.7396 78.2285 29.3027C77.9993 28.8587 77.8848 28.2965 77.8848 27.6162C77.8848 26.5062 78.3145 25.6719 79.1738 25.1133C80.0404 24.5475 81.1969 24.2646 82.6436 24.2646C83.3883 24.2646 84.0973 24.3398 84.7705 24.4902C85.4508 24.6406 86.1491 24.8805 86.8652 25.21L85.877 27.5732C85.2826 27.3154 84.7204 27.1042 84.1904 26.9395C83.6676 26.7747 83.1341 26.6924 82.5898 26.6924C82.11 26.6924 81.7484 26.7568 81.5049 26.8857C81.2614 27.0146 81.1396 27.2116 81.1396 27.4766C81.1396 27.6699 81.2005 27.8418 81.3223 27.9922C81.4512 28.1426 81.6947 28.3109 82.0527 28.4971C82.418 28.6761 82.9515 28.9089 83.6533 29.1953C84.3337 29.4746 84.9245 29.7682 85.4258 30.0762C85.9271 30.377 86.3138 30.7529 86.5859 31.2041C86.8581 31.6481 86.9941 32.2246 86.9941 32.9336ZM94.8604 34.1045C95.2184 34.1045 95.5658 34.0687 95.9023 33.9971C96.2461 33.9255 96.5863 33.8359 96.9229 33.7285V36.167C96.5719 36.3245 96.1351 36.4535 95.6123 36.5537C95.0967 36.6611 94.5309 36.7148 93.915 36.7148C93.1989 36.7148 92.5544 36.6003 91.9814 36.3711C91.4157 36.1348 90.9681 35.7301 90.6387 35.1572C90.3164 34.5771 90.1553 33.7715 90.1553 32.7402V26.9502H88.5869V25.5645L90.3916 24.4688L91.3369 21.9336H93.4316V24.4902H96.7939V26.9502H93.4316V32.7402C93.4316 33.1986 93.5605 33.5423 93.8184 33.7715C94.0833 33.9935 94.4307 34.1045 94.8604 34.1045Z" fill="#fff"/><rect x="3.5" y="1" width="138" height="53" rx="6.5" stroke="#019AEB"/><path d="M184.902 32.1387C184.902 33.0697 184.677 33.8789 184.226 34.5664C183.774 35.2539 183.116 35.7839 182.249 36.1562C181.39 36.5286 180.344 36.7148 179.112 36.7148C178.568 36.7148 178.035 36.679 177.512 36.6074C176.996 36.5358 176.498 36.432 176.019 36.2959C175.546 36.1527 175.095 35.9772 174.665 35.7695V32.6758C175.41 33.0052 176.183 33.3024 176.985 33.5674C177.787 33.8324 178.582 33.9648 179.37 33.9648C179.914 33.9648 180.351 33.8932 180.681 33.75C181.017 33.6068 181.261 33.4098 181.411 33.1592C181.562 32.9085 181.637 32.6221 181.637 32.2998C181.637 31.9059 181.504 31.5693 181.239 31.29C180.974 31.0107 180.609 30.7493 180.144 30.5059C179.685 30.2624 179.166 30.001 178.586 29.7217C178.221 29.5498 177.823 29.3421 177.394 29.0986C176.964 28.848 176.556 28.5436 176.169 28.1855C175.782 27.8275 175.464 27.3942 175.213 26.8857C174.969 26.3701 174.848 25.7542 174.848 25.0381C174.848 24.0999 175.062 23.2979 175.492 22.6318C175.922 21.9658 176.534 21.4574 177.329 21.1064C178.131 20.7484 179.076 20.5693 180.165 20.5693C180.981 20.5693 181.758 20.666 182.496 20.8594C183.241 21.0456 184.018 21.3177 184.827 21.6758L183.753 24.2646C183.03 23.971 182.382 23.7454 181.809 23.5879C181.236 23.4232 180.652 23.3408 180.058 23.3408C179.642 23.3408 179.288 23.4089 178.994 23.5449C178.701 23.6738 178.479 23.86 178.328 24.1035C178.178 24.3398 178.103 24.6156 178.103 24.9307C178.103 25.3031 178.21 25.6182 178.425 25.876C178.647 26.1266 178.976 26.3701 179.413 26.6064C179.857 26.8428 180.409 27.1185 181.067 27.4336C181.869 27.8132 182.553 28.2106 183.119 28.626C183.692 29.0342 184.132 29.5176 184.44 30.0762C184.748 30.6276 184.902 31.3151 184.902 32.1387ZM192.693 24.2646C193.803 24.2646 194.759 24.4795 195.562 24.9092C196.364 25.3317 196.983 25.9476 197.42 26.7568C197.857 27.5661 198.075 28.5544 198.075 29.7217V31.3115H190.33C190.366 32.2354 190.642 32.9622 191.157 33.4922C191.68 34.015 192.403 34.2764 193.327 34.2764C194.093 34.2764 194.795 34.1976 195.433 34.04C196.07 33.8825 196.725 33.6462 197.398 33.3311V35.8662C196.804 36.1598 196.181 36.3747 195.529 36.5107C194.885 36.6468 194.101 36.7148 193.177 36.7148C191.974 36.7148 190.907 36.4928 189.976 36.0488C189.052 35.6048 188.325 34.9281 187.795 34.0186C187.272 33.109 187.011 31.9632 187.011 30.5811C187.011 29.1774 187.247 28.0101 187.72 27.0791C188.2 26.141 188.866 25.4391 189.718 24.9736C190.57 24.501 191.562 24.2646 192.693 24.2646ZM192.715 26.5957C192.077 26.5957 191.548 26.7998 191.125 27.208C190.71 27.6162 190.47 28.2572 190.405 29.1309H195.003C194.996 28.6439 194.906 28.2106 194.734 27.8311C194.57 27.4515 194.319 27.1507 193.982 26.9287C193.653 26.7067 193.23 26.5957 192.715 26.5957ZM205.866 36.7148C204.677 36.7148 203.664 36.5 202.826 36.0703C201.988 35.6335 201.351 34.9603 200.914 34.0508C200.477 33.1413 200.259 31.9775 200.259 30.5596C200.259 29.0915 200.506 27.8955 201 26.9717C201.501 26.0407 202.192 25.3568 203.073 24.9199C203.961 24.4831 204.989 24.2646 206.156 24.2646C206.987 24.2646 207.703 24.347 208.305 24.5117C208.913 24.6693 209.443 24.859 209.895 25.0811L208.928 27.6162C208.412 27.4085 207.932 27.2402 207.488 27.1113C207.044 26.9753 206.6 26.9072 206.156 26.9072C205.583 26.9072 205.107 27.0433 204.728 27.3154C204.348 27.5804 204.065 27.9814 203.879 28.5186C203.693 29.0557 203.6 29.7288 203.6 30.5381C203.6 31.333 203.7 31.9919 203.9 32.5146C204.101 33.0374 204.391 33.4277 204.771 33.6855C205.15 33.9362 205.612 34.0615 206.156 34.0615C206.837 34.0615 207.442 33.972 207.972 33.793C208.502 33.6068 209.017 33.349 209.519 33.0195V35.8232C209.017 36.1383 208.491 36.3639 207.939 36.5C207.395 36.6432 206.704 36.7148 205.866 36.7148ZM223.476 30.4736C223.476 31.4762 223.34 32.3643 223.067 33.1377C222.802 33.9111 222.412 34.5664 221.896 35.1035C221.388 35.6335 220.772 36.0345 220.049 36.3066C219.333 36.5788 218.523 36.7148 217.621 36.7148C216.776 36.7148 215.999 36.5788 215.29 36.3066C214.588 36.0345 213.976 35.6335 213.453 35.1035C212.938 34.5664 212.536 33.9111 212.25 33.1377C211.971 32.3643 211.831 31.4762 211.831 30.4736C211.831 29.1416 212.067 28.0137 212.54 27.0898C213.013 26.166 213.686 25.4642 214.56 24.9844C215.433 24.5046 216.475 24.2646 217.686 24.2646C218.81 24.2646 219.805 24.5046 220.672 24.9844C221.546 25.4642 222.229 26.166 222.724 27.0898C223.225 28.0137 223.476 29.1416 223.476 30.4736ZM215.172 30.4736C215.172 31.2614 215.258 31.9238 215.43 32.4609C215.602 32.998 215.87 33.4027 216.235 33.6748C216.601 33.9469 217.077 34.083 217.664 34.083C218.244 34.083 218.713 33.9469 219.071 33.6748C219.437 33.4027 219.701 32.998 219.866 32.4609C220.038 31.9238 220.124 31.2614 220.124 30.4736C220.124 29.6787 220.038 29.0199 219.866 28.4971C219.701 27.9671 219.437 27.5697 219.071 27.3047C218.706 27.0397 218.23 26.9072 217.643 26.9072C216.776 26.9072 216.146 27.2044 215.752 27.7988C215.365 28.3932 215.172 29.2848 215.172 30.4736ZM233.254 24.2646C234.536 24.2646 235.567 24.6156 236.348 25.3174C237.128 26.012 237.519 27.1292 237.519 28.6689V36.5H234.242V29.4854C234.242 28.626 234.085 27.9779 233.77 27.541C233.462 27.1042 232.975 26.8857 232.309 26.8857C231.306 26.8857 230.622 27.2259 230.257 27.9062C229.892 28.5866 229.709 29.5677 229.709 30.8496V36.5H226.433V24.4902H228.936L229.376 26.0264H229.559C229.816 25.611 230.135 25.2744 230.515 25.0166C230.901 24.7588 231.327 24.569 231.793 24.4473C232.266 24.3255 232.753 24.2646 233.254 24.2646ZM244.944 36.7148C243.605 36.7148 242.513 36.1921 241.668 35.1465C240.83 34.0938 240.411 32.5505 240.411 30.5166C240.411 28.4613 240.837 26.9072 241.689 25.8545C242.542 24.7946 243.655 24.2646 245.03 24.2646C245.603 24.2646 246.108 24.3434 246.545 24.501C246.982 24.6585 247.358 24.8698 247.673 25.1348C247.995 25.3997 248.267 25.6969 248.489 26.0264H248.597C248.554 25.7972 248.5 25.4606 248.436 25.0166C248.378 24.5654 248.35 24.1035 248.35 23.6309V19.7852H251.637V36.5H249.123L248.489 34.9424H248.35C248.142 35.2718 247.881 35.5726 247.565 35.8447C247.257 36.1097 246.889 36.321 246.459 36.4785C246.029 36.6361 245.524 36.7148 244.944 36.7148ZM246.094 34.1045C246.989 34.1045 247.619 33.8395 247.984 33.3096C248.357 32.7725 248.554 31.9668 248.575 30.8926V30.5381C248.575 29.3708 248.396 28.4792 248.038 27.8633C247.68 27.2402 247.014 26.9287 246.04 26.9287C245.317 26.9287 244.751 27.2402 244.343 27.8633C243.935 28.4863 243.73 29.3851 243.73 30.5596C243.73 31.734 243.935 32.6185 244.343 33.2129C244.758 33.8073 245.342 34.1045 246.094 34.1045Z" fill="#fff"/><line x1="286.5" y1="15.5" x2="286.5" y2="39.5" stroke="#019AEB"/><path d="M337.117 36.5H333.787V23.5664H329.522V20.7949H341.382V23.5664H337.117V36.5ZM347.067 19.7852V23.1904C347.067 23.7848 347.046 24.3506 347.003 24.8877C346.967 25.4248 346.938 25.8044 346.917 26.0264H347.089C347.347 25.611 347.651 25.2744 348.002 25.0166C348.36 24.7588 348.754 24.569 349.184 24.4473C349.613 24.3255 350.075 24.2646 350.569 24.2646C351.436 24.2646 352.191 24.4186 352.836 24.7266C353.48 25.0273 353.982 25.5036 354.34 26.1553C354.698 26.7998 354.877 27.6377 354.877 28.6689V36.5H351.601V29.4854C351.601 28.626 351.443 27.9779 351.128 27.541C350.813 27.1042 350.326 26.8857 349.667 26.8857C349.008 26.8857 348.489 27.0397 348.109 27.3477C347.73 27.6484 347.461 28.096 347.304 28.6904C347.146 29.2777 347.067 29.9974 347.067 30.8496V36.5H343.791V19.7852H347.067ZM361.776 24.4902V36.5H358.5V24.4902H361.776ZM360.144 19.7852C360.631 19.7852 361.049 19.8997 361.4 20.1289C361.751 20.3509 361.927 20.7699 361.927 21.3857C361.927 21.9945 361.751 22.417 361.4 22.6533C361.049 22.8825 360.631 22.9971 360.144 22.9971C359.649 22.9971 359.227 22.8825 358.876 22.6533C358.532 22.417 358.36 21.9945 358.36 21.3857C358.36 20.7699 358.532 20.3509 358.876 20.1289C359.227 19.8997 359.649 19.7852 360.144 19.7852ZM372.178 24.2646C372.342 24.2646 372.532 24.2754 372.747 24.2969C372.969 24.3112 373.148 24.3327 373.284 24.3613L373.037 27.4336C372.93 27.3978 372.776 27.3727 372.575 27.3584C372.382 27.3369 372.214 27.3262 372.07 27.3262C371.648 27.3262 371.236 27.3799 370.835 27.4873C370.441 27.5947 370.087 27.7702 369.771 28.0137C369.456 28.25 369.206 28.5651 369.02 28.959C368.84 29.3457 368.751 29.8219 368.751 30.3877V36.5H365.475V24.4902H367.956L368.439 26.5098H368.601C368.837 26.1016 369.131 25.7292 369.481 25.3926C369.84 25.0488 370.244 24.7767 370.695 24.5762C371.154 24.3685 371.648 24.2646 372.178 24.2646ZM379.518 36.7148C378.178 36.7148 377.086 36.1921 376.241 35.1465C375.403 34.0938 374.984 32.5505 374.984 30.5166C374.984 28.4613 375.41 26.9072 376.263 25.8545C377.115 24.7946 378.229 24.2646 379.604 24.2646C380.176 24.2646 380.681 24.3434 381.118 24.501C381.555 24.6585 381.931 24.8698 382.246 25.1348C382.568 25.3997 382.84 25.6969 383.062 26.0264H383.17C383.127 25.7972 383.073 25.4606 383.009 25.0166C382.951 24.5654 382.923 24.1035 382.923 23.6309V19.7852H386.21V36.5H383.696L383.062 34.9424H382.923C382.715 35.2718 382.454 35.5726 382.139 35.8447C381.831 36.1097 381.462 36.321 381.032 36.4785C380.603 36.6361 380.098 36.7148 379.518 36.7148ZM380.667 34.1045C381.562 34.1045 382.192 33.8395 382.558 33.3096C382.93 32.7725 383.127 31.9668 383.148 30.8926V30.5381C383.148 29.3708 382.969 28.4792 382.611 27.8633C382.253 27.2402 381.587 26.9287 380.613 26.9287C379.89 26.9287 379.324 27.2402 378.916 27.8633C378.508 28.4863 378.304 29.3851 378.304 30.5596C378.304 31.734 378.508 32.6185 378.916 33.2129C379.331 33.8073 379.915 34.1045 380.667 34.1045Z" fill="#fff"/></g><rect x="3" y="1" width="425" height="53" rx="9" stroke="#019AEB" stroke-width="2"/><path d="M2 7.5C2 4.18629 4.68629 1.5 8 1.5H135C138.314 1.5 141 4.18629 141 7.5V47.5C141 50.8137 138.314 53.5 135 53.5H8C4.68629 53.5 2 50.8137 2 47.5V7.5Z" stroke="#019AEB" stroke-width="3"/><path d="M4 8.5C4 5.73858 6.23858 3.5 9 3.5H134C136.761 3.5 139 5.73858 139 8.5V46.5C139 49.2614 136.761 51.5 134 51.5H9C6.23858 51.5 4 49.2614 4 46.5V8.5Z" stroke="#252A2E" stroke-width="2"/><defs><clipPath id="clip0_7388_84266"><rect x="4" y="2" width="423" height="51" rx="8" fill="#fff"/></clipPath></defs></svg>
